lib/logo_tmp/nrk-logo-yr--color.svg

<svg width="26" height="26" viewBox="0 0 26 26" fill="none" xmlns="http://www.w3.org/2000/svg">
<path d="M13 25.5C6.096 25.5 0.5 19.904 0.5 13C0.5 6.096 6.096 0.5 13 0.5C19.904 0.5 25.5 6.096 25.5 13C25.5 19.904 19.904 25.5 13 25.5Z" fill="#00B8F1"/>
<path d="M20.55 16.902H20.556C20.924 17.296 21.417 17.155 21.417 17.155L21.414 18.789H20.218L20.176 18.792L20.132 18.789H20.088C19.8549 18.7697 19.6358 18.67 19.468 18.507L17.14 15.659H16.334C15.785 15.659 15.324 16.119 15.324 16.669V18.792H13.304V11.312C13.3056 10.5089 13.6251 9.73907 14.1927 9.17089C14.7604 8.60271 15.5299 8.28241 16.333 8.28003H18.117C19.127 8.28003 20.098 8.57003 20.853 9.19303C21.61 9.80703 22.088 10.787 22.078 11.878C22.083 12.929 21.706 13.905 21.014 14.593C20.584 15.027 20.039 15.336 19.436 15.505C19.436 15.505 20.12 16.437 20.551 16.902H20.55ZM11.993 8.60803H11.992V15.223C11.985 17.919 10.051 18.773 9.31601 19.203L8.04901 17.669L8.07801 17.652L8.04801 17.618C8.45601 17.414 9.97301 16.637 9.97301 15.444V14.544C9.76301 14.968 8.68401 15.448 7.94901 15.461H7.86901C6.77401 15.443 5.77201 15.057 5.04101 14.368C4.23501 13.608 3.80701 12.554 3.80701 11.321V8.60003H5.77701L5.78001 11.32C5.78001 12.898 6.87201 13.475 7.90901 13.489C8.81801 13.477 9.95601 13.083 9.99301 11.867V8.60703H11.993V8.60803ZM18.299 13.638L18.297 13.637C18.889 13.637 19.294 13.447 19.581 13.164C19.863 12.877 20.052 12.471 20.057 11.88C20.047 11.33 19.872 11.015 19.562 10.748C19.248 10.486 18.745 10.301 18.117 10.301H16.334C16.0673 10.3047 15.8125 10.4122 15.6238 10.6009C15.4352 10.7895 15.3276 11.0443 15.324 11.311V13.895C15.642 13.784 15.98 13.639 16.334 13.639H18.3L18.299 13.638Z" fill="white"/>
</svg>

<svg xmlns="http://www.w3.org/2000/svg" viewBox="0 0 26 26"><path fill="#00B8F1" d="M13 25.5C6.096 25.5.5 19.904.5 13S6.096.5 13 .5 25.5 6.096 25.5 13 19.904 25.5 13 25.5Z"/><path fill="#fff" d="M20.55 16.902h.006c.368.394.861.253.861.253l-.003 1.634h-1.196l-.042.003-.044-.003h-.044a1.01 1.01 0 0 1-.62-.282l-2.328-2.848h-.806c-.549 0-1.01.46-1.01 1.01v2.123h-2.02v-7.48a3.038 3.038 0 0 1 3.029-3.032h1.784c1.01 0 1.981.29 2.736.913.757.614 1.235 1.594 1.225 2.685.005 1.051-.372 2.027-1.064 2.715-.43.434-.975.743-1.578.912 0 0 .684.932 1.115 1.397h-.001Zm-8.557-8.294h-.001v6.615c-.007 2.696-1.941 3.55-2.676 3.98l-1.267-1.534.029-.017-.03-.034c.408-.204 1.925-.981 1.925-2.174v-.9c-.21.424-1.289.904-2.024.917h-.08c-1.095-.018-2.097-.404-2.828-1.093-.806-.76-1.234-1.814-1.234-3.047V8.6h1.97l.003 2.72c0 1.578 1.092 2.155 2.129 2.169.909-.012 2.047-.406 2.084-1.622v-3.26h2v.001Zm6.306 5.03-.002-.001c.592 0 .997-.19 1.284-.473.282-.287.471-.693.476-1.284-.01-.55-.185-.865-.495-1.132-.314-.262-.817-.447-1.445-.447h-1.783a1.024 1.024 0 0 0-1.01 1.01v2.584c.318-.111.656-.256 1.01-.256H18.3l-.001-.001Z"/></svg>
